offer.svg

<svg xmlns="http://www.w3.org/2000/svg" width="500" height="250" fill="none">
  <path fill="url(#a)" d="M0 0h500v250H0z"/>
  <path fill="#000" d="m199.88 120-.04-1.24c-.027-4.267 2.293-7.787 6.96-10.56l4.52-2.64c1.52-.907 2.627-1.813 3.32-2.72.72-.933 1.08-2.027 1.08-3.28 0-1.387-.493-2.56-1.48-3.52-1.013-.933-2.32-1.4-3.92-1.4-2.347 0-4 .933-4.96 2.8-.373.72-.573 1.76-.6 3.12l-4.64-.6c-.053-1.307.227-2.627.84-3.96a9.57 9.57 0 0 1 2.68-3.44c1.76-1.44 4.013-2.16 6.76-2.16 3.093 0 5.573.933 7.44 2.8 1.733 1.787 2.6 3.88 2.6 6.28 0 1.787-.48 3.427-1.44 4.92-.933 1.52-2.267 2.787-4 3.8l-5.32 3.12c-.16.08-.36.2-.6.36-.213.16-.36.267-.44.32-.48.347-.867.64-1.16.88-.987.827-1.627 1.813-1.92 2.96h15.16V120h-20.84Zm43.486-1.68c-1.894 1.36-4.027 2.04-6.4 2.04-2.4 0-4.534-.667-6.4-2-1.894-1.36-3.334-3.147-4.32-5.36-.987-2.24-1.48-4.773-1.48-7.6 0-4.24 1.12-7.773 3.36-10.6 2.293-2.907 5.266-4.36 8.92-4.36 2.4 0 4.533.653 6.4 1.96 1.893 1.387 3.333 3.187 4.32 5.4.986 2.213 1.48 4.733 1.48 7.56 0 2.8-.494 5.32-1.48 7.56-1.04 2.32-2.507 4.12-4.4 5.4Zm-2.4-22.2c-1.227-.987-2.56-1.48-4-1.48-1.467 0-2.787.48-3.96 1.44-2.347 1.973-3.52 5.067-3.52 9.28-.054 2.96.64 5.507 2.08 7.64 1.44 2.107 3.266 3.147 5.48 3.12 1.493 0 2.813-.493 3.96-1.48 1.12-.933 1.986-2.213 2.6-3.84.613-1.68.92-3.48.92-5.4 0-4.133-1.187-7.227-3.56-9.28ZM267.363 120v-6.44h-15v-5.12l13.88-17.6h5.6v18.56h4.36v4.16h-4.36V120h-4.48Zm0-10.6V95.92l-10.68 13.48h10.68Zm23.004 10.92c-2.72 0-5.134-.68-7.24-2.04a7.49 7.49 0 0 1-2.44-2.64 7.372 7.372 0 0 1-.92-3.6c0-1.547.48-2.96 1.44-4.24.986-1.333 2.32-2.28 4-2.84-1.414-.48-2.574-1.333-3.48-2.56-.88-1.2-1.32-2.52-1.32-3.96a6.9 6.9 0 0 1 .84-3.32 7.479 7.479 0 0 1 2.36-2.56c2-1.44 4.253-2.16 6.76-2.16 1.706 0 3.293.32 4.76.96 1.52.64 2.773 1.573 3.76 2.8.96 1.253 1.44 2.68 1.44 4.28 0 1.36-.44 2.653-1.32 3.88-.827 1.2-1.987 2.08-3.48 2.64 1.706.533 3.053 1.48 4.04 2.84a6.923 6.923 0 0 1 1.4 4.24c0 1.547-.427 2.92-1.28 4.12-.854 1.2-1.987 2.133-3.4 2.8-1.787.907-3.76 1.36-5.92 1.36Zm-5.44-21.52c0 1.227.533 2.267 1.6 3.12 1.066.827 2.346 1.24 3.84 1.24 1.6 0 2.906-.413 3.92-1.24.986-.8 1.48-1.84 1.48-3.12s-.534-2.333-1.6-3.16c-1.014-.827-2.294-1.24-3.84-1.24-1.574 0-2.867.4-3.88 1.2-1.014.853-1.52 1.92-1.52 3.2Zm-.6 12.8c0 1.307.586 2.44 1.76 3.4 1.146.907 2.573 1.36 4.28 1.36 1.706 0 3.146-.44 4.32-1.32 1.146-.907 1.72-2.053 1.72-3.44 0-1.333-.587-2.467-1.76-3.4-1.227-.907-2.667-1.36-4.32-1.36-1.734 0-3.147.453-4.24 1.36-1.174.88-1.76 2.013-1.76 3.4Z"/>
  <path fill="#333" d="M181.312 153.96V159h-1.824v-11.664h1.824v4.896h5.776v-4.896h1.84V159h-1.84v-5.04h-5.776Zm12.47 5.184c-.778 0-1.418-.224-1.92-.672-.501-.437-.752-.997-.752-1.68v-.08c.011-1.013.523-1.717 1.536-2.112a4.786 4.786 0 0 1 1.76-.32h.992c.491 0 .736-.224.736-.672 0-.341-.133-.629-.4-.864-.288-.235-.677-.352-1.168-.352-.469 0-.858.123-1.168.368a1.44 1.44 0 0 0-.56.96l-1.616-.368c.054-.373.235-.773.544-1.2a3.075 3.075 0 0 1 1.248-.96c.438-.203.976-.304 1.616-.304 1.494 0 2.486.544 2.976 1.632.182.395.272.864.272 1.408v3.792c0 .533.016.96.048 1.28h-1.728c-.053-.245-.08-.608-.08-1.088-.266.437-.608.752-1.024.944a3.164 3.164 0 0 1-1.312.288Zm2.336-3.616h-1.712c-.373 0-.72.096-1.04.288-.32.203-.48.475-.48.816 0 .331.118.597.352.8.235.192.539.288.912.288.608 0 1.088-.176 1.44-.528.352-.352.528-.821.528-1.408v-.256Zm16.484-4.56c0 1.035-.362 1.904-1.088 2.608-.757.736-1.829 1.104-3.216 1.104h-2.08V159h-1.824v-11.664h4.128c1.643 0 2.806.523 3.488 1.568.395.608.592 1.296.592 2.064Zm-1.856.032c0-.533-.181-.992-.544-1.376-.362-.395-.976-.592-1.84-.592h-2.144V153h2.144c.854 0 1.472-.219 1.856-.656.352-.405.528-.853.528-1.344Zm9.337 8h-1.728c-.054-.245-.08-.608-.08-1.088-.267.437-.608.752-1.024.944a3.167 3.167 0 0 1-1.312.288c-.779 0-1.419-.224-1.92-.672-.502-.437-.752-.997-.752-1.68v-.08c.01-1.013.522-1.717 1.536-2.112a4.78 4.78 0 0 1 1.759-.32h.993c.49 0 .736-.224.736-.672a1.11 1.11 0 0 0-.4-.864c-.288-.235-.678-.352-1.168-.352-.47 0-.859.123-1.168.368-.31.235-.496.555-.56.96l-1.616-.368c.053-.373.234-.773.544-1.2.33-.427.746-.747 1.248-.96.437-.203.976-.304 1.615-.304 1.494 0 2.486.544 2.977 1.632.181.395.272.864.272 1.408v3.792c0 .533.016.96.048 1.28Zm-1.808-3.216v-.256h-1.713c-.373 0-.719.096-1.039.288-.32.203-.48.475-.48.816 0 .331.117.597.352.8.234.192.538.288.912.288.608 0 1.088-.176 1.44-.528.352-.352.528-.821.528-1.408Zm6.626 3.36c-1.184-.011-2.053-.384-2.608-1.12-.32-.416-.496-.816-.528-1.2l1.52-.4c.085.384.267.693.544.928.277.224.629.336 1.056.336.352 0 .624-.08.816-.24a.853.853 0 0 0 .304-.688c0-.437-.315-.731-.944-.88l-1.008-.24c-.683-.16-1.205-.437-1.568-.832a2.085 2.085 0 0 1-.544-1.44c0-.683.272-1.269.816-1.76.544-.491 1.211-.736 2-.736 1.12.011 1.936.363 2.448 1.056.267.352.427.709.48 1.072l-1.488.416a1.41 1.41 0 0 0-.48-.8c-.235-.203-.555-.304-.96-.304-.299 0-.555.085-.768.256a.735.735 0 0 0-.32.64c0 .448.267.725.8.832l1.088.224c.715.16 1.269.453 1.664.88.395.448.592.955.592 1.52 0 .672-.256 1.253-.768 1.744-.501.491-1.216.736-2.144.736Zm8.399 0c-1.152.021-2.139-.373-2.96-1.184-.811-.821-1.205-1.808-1.184-2.96 0-.747.181-1.435.544-2.064a3.916 3.916 0 0 1 1.504-1.504c.629-.363 1.333-.544 2.112-.544.949 0 1.755.251 2.416.752.661.491 1.083 1.093 1.264 1.808l-1.6.528c-.096-.341-.299-.667-.608-.976-.363-.341-.853-.512-1.472-.512-.651 0-1.205.229-1.664.688-.448.469-.672 1.072-.672 1.808 0 .725.219 1.333.656 1.824.448.48 1.013.72 1.696.72 1.013 0 1.712-.507 2.096-1.52l1.616.528c-.181.651-.576 1.232-1.184 1.744-.661.576-1.515.864-2.56.864Zm11.798-.144h-1.728c-.053-.245-.08-.608-.08-1.088-.267.437-.608.752-1.024.944a3.167 3.167 0 0 1-1.312.288c-.779 0-1.419-.224-1.92-.672-.501-.437-.752-.997-.752-1.68v-.08c.011-1.013.523-1.717 1.536-2.112a4.786 4.786 0 0 1 1.76-.32h.992c.491 0 .736-.224.736-.672 0-.341-.133-.629-.4-.864-.288-.235-.677-.352-1.168-.352-.469 0-.859.123-1.168.368a1.44 1.44 0 0 0-.56.96l-1.616-.368c.053-.373.235-.773.544-1.2a3.075 3.075 0 0 1 1.248-.96c.437-.203.976-.304 1.616-.304 1.493 0 2.485.544 2.976 1.632.181.395.272.864.272 1.408v3.792c0 .533.016.96.048 1.28Zm-1.808-3.216v-.256h-1.712c-.373 0-.72.096-1.04.288-.32.203-.48.475-.48.816 0 .331.117.597.352.8.235.192.539.288.912.288.608 0 1.088-.176 1.44-.528.352-.352.528-.821.528-1.408Zm5.811-8.912V159h-1.776v-12.128h1.776Zm4.14 9.392L252.153 159h-1.872l4.752-11.664h2.16l4.72 11.664h-1.904l-1.072-2.736h-5.696Zm.64-1.632h4.432l-2.224-5.536-2.208 5.536Zm9.545-7.296h4.464c1.13 0 2.037.272 2.72.816.682.555 1.024 1.307 1.024 2.256 0 .395-.107.811-.32 1.248-.246.544-.699.965-1.36 1.264.832.267 1.424.693 1.776 1.28.288.512.432 1.024.432 1.536 0 .971-.352 1.76-1.056 2.368-.715.597-1.744.896-3.088.896h-4.592v-11.664Zm1.808 4.944h2.304c.768 0 1.333-.16 1.696-.48.384-.32.576-.72.576-1.2 0-.501-.182-.896-.544-1.184-.363-.288-.907-.432-1.632-.432h-2.4v3.296Zm.016 5.072h2.8c.725 0 1.285-.155 1.68-.464.405-.32.608-.752.608-1.296 0-.523-.208-.939-.624-1.248-.406-.309-.998-.464-1.776-.464h-2.688v3.472Zm14.201 1.792a5.771 5.771 0 0 1-2.576-.576 5.783 5.783 0 0 1-2.064-1.648c-.811-1.003-1.216-2.24-1.216-3.712 0-.853.16-1.664.48-2.432a5.913 5.913 0 0 1 1.296-1.92 6.286 6.286 0 0 1 1.904-1.232 5.778 5.778 0 0 1 2.256-.464c1.227 0 2.299.293 3.216.88.427.299.779.603 1.056.912.555.629.928 1.307 1.12 2.032l-1.808.624a3.616 3.616 0 0 0-.576-1.264 3.044 3.044 0 0 0-.672-.704c-.597-.501-1.381-.752-2.352-.752-1.045 0-1.968.384-2.768 1.152-.821.8-1.232 1.835-1.232 3.104 0 1.291.405 2.331 1.216 3.12.789.768 1.712 1.152 2.768 1.152.885 0 1.637-.24 2.256-.72a4.015 4.015 0 0 0 1.392-2.048l1.808.624c-.267.96-.8 1.781-1.6 2.464a5.852 5.852 0 0 1-2.32 1.216 6.506 6.506 0 0 1-1.584.192Zm6.226-1.36c0-.373.128-.688.384-.944.277-.256.581-.384.912-.384.341 0 .651.128.928.384.245.245.368.56.368.944 0 .363-.123.667-.368.912a1.264 1.264 0 0 1-.928.384c-.341 0-.645-.133-.912-.4a1.162 1.162 0 0 1-.384-.896ZM300.484 159h-2.048l-5.984-8.928V159h-1.808v-11.664h2.112l5.92 8.88v-8.88h1.808V159Zm2.957-11.664h7.472V149h-5.648v3.232h5.136v1.664h-5.136v3.44h5.696V159h-7.52v-11.664ZM315.828 159v-9.968h-3.712v-1.696h9.248v1.696h-3.712V159h-1.824Z"/>
  <defs>
    <linearGradient id="a" x1="500" x2="0" y1="0" y2="250" gradientUnits="userSpaceOnUse">
      <stop stop-color="#FFE9B1"/>
      <stop offset="1" stop-color="#E1BD61"/>
    </linearGradient>
  </defs>
</svg>

<svg width="500" height="250" viewBox="0 0 500 250" fill="none" xmlns="http://www.w3.org/2000/svg">
<rect width="500" height="250" fill="url(#paint0_linear_31_36)"/>
<path d="M199.88 120L199.84 118.76C199.813 114.493 202.133 110.973 206.8 108.2L211.32 105.56C212.84 104.653 213.947 103.747 214.64 102.84C215.36 101.907 215.72 100.813 215.72 99.56C215.72 98.1733 215.227 97 214.24 96.04C213.227 95.1067 211.92 94.64 210.32 94.64C207.973 94.64 206.32 95.5733 205.36 97.44C204.987 98.16 204.787 99.2 204.76 100.56L200.12 99.96C200.067 98.6533 200.347 97.3333 200.96 96C201.573 94.6667 202.467 93.52 203.64 92.56C205.4 91.12 207.653 90.4 210.4 90.4C213.493 90.4 215.973 91.3333 217.84 93.2C219.573 94.9867 220.44 97.08 220.44 99.48C220.44 101.267 219.96 102.907 219 104.4C218.067 105.92 216.733 107.187 215 108.2L209.68 111.32C209.52 111.4 209.32 111.52 209.08 111.68C208.867 111.84 208.72 111.947 208.64 112C208.16 112.347 207.773 112.64 207.48 112.88C206.493 113.707 205.853 114.693 205.56 115.84H220.72V120H199.88ZM243.366 118.32C241.472 119.68 239.339 120.36 236.966 120.36C234.566 120.36 232.432 119.693 230.566 118.36C228.672 117 227.232 115.213 226.246 113C225.259 110.76 224.766 108.227 224.766 105.4C224.766 101.16 225.886 97.6267 228.126 94.8C230.419 91.8933 233.392 90.44 237.046 90.44C239.446 90.44 241.579 91.0933 243.446 92.4C245.339 93.7867 246.779 95.5867 247.766 97.8C248.752 100.013 249.246 102.533 249.246 105.36C249.246 108.16 248.752 110.68 247.766 112.92C246.726 115.24 245.259 117.04 243.366 118.32ZM240.966 96.12C239.739 95.1333 238.406 94.64 236.966 94.64C235.499 94.64 234.179 95.12 233.006 96.08C230.659 98.0533 229.486 101.147 229.486 105.36C229.432 108.32 230.126 110.867 231.566 113C233.006 115.107 234.832 116.147 237.046 116.12C238.539 116.12 239.859 115.627 241.006 114.64C242.126 113.707 242.992 112.427 243.606 110.8C244.219 109.12 244.526 107.32 244.526 105.4C244.526 101.267 243.339 98.1733 240.966 96.12ZM267.363 120V113.56H252.363V108.44L266.243 90.84H271.843V109.4H276.203V113.56H271.843V120H267.363ZM267.363 109.4V95.92L256.683 109.4H267.363ZM290.367 120.32C287.647 120.32 285.233 119.64 283.127 118.28C282.113 117.613 281.3 116.733 280.687 115.64C280.073 114.52 279.767 113.32 279.767 112.04C279.767 110.493 280.247 109.08 281.207 107.8C282.193 106.467 283.527 105.52 285.207 104.96C283.793 104.48 282.633 103.627 281.727 102.4C280.847 101.2 280.407 99.88 280.407 98.44C280.407 97.2667 280.687 96.16 281.247 95.12C281.833 94.08 282.62 93.2267 283.607 92.56C285.607 91.12 287.86 90.4 290.367 90.4C292.073 90.4 293.66 90.72 295.127 91.36C296.647 92 297.9 92.9333 298.887 94.16C299.847 95.4133 300.327 96.84 300.327 98.44C300.327 99.8 299.887 101.093 299.007 102.32C298.18 103.52 297.02 104.4 295.527 104.96C297.233 105.493 298.58 106.44 299.567 107.8C300.5 109.053 300.967 110.467 300.967 112.04C300.967 113.587 300.54 114.96 299.687 116.16C298.833 117.36 297.7 118.293 296.287 118.96C294.5 119.867 292.527 120.32 290.367 120.32ZM284.927 98.8C284.927 100.027 285.46 101.067 286.527 101.92C287.593 102.747 288.873 103.16 290.367 103.16C291.967 103.16 293.273 102.747 294.287 101.92C295.273 101.12 295.767 100.08 295.767 98.8C295.767 97.52 295.233 96.4667 294.167 95.64C293.153 94.8133 291.873 94.4 290.327 94.4C288.753 94.4 287.46 94.8 286.447 95.6C285.433 96.4533 284.927 97.52 284.927 98.8ZM284.327 111.6C284.327 112.907 284.913 114.04 286.087 115C287.233 115.907 288.66 116.36 290.367 116.36C292.073 116.36 293.513 115.92 294.687 115.04C295.833 114.133 296.407 112.987 296.407 111.6C296.407 110.267 295.82 109.133 294.647 108.2C293.42 107.293 291.98 106.84 290.327 106.84C288.593 106.84 287.18 107.293 286.087 108.2C284.913 109.08 284.327 110.213 284.327 111.6Z" fill="black"/>
<path d="M181.312 153.96V159H179.488V147.336H181.312V152.232H187.088V147.336H188.928V159H187.088V153.96H181.312ZM193.782 159.144C193.004 159.144 192.364 158.92 191.862 158.472C191.361 158.035 191.11 157.475 191.11 156.792V156.712C191.121 155.699 191.633 154.995 192.646 154.6C193.19 154.387 193.777 154.28 194.406 154.28H195.398C195.889 154.28 196.134 154.056 196.134 153.608C196.134 153.267 196.001 152.979 195.734 152.744C195.446 152.509 195.057 152.392 194.566 152.392C194.097 152.392 193.708 152.515 193.398 152.76C193.089 152.995 192.902 153.315 192.838 153.72L191.222 153.352C191.276 152.979 191.457 152.579 191.766 152.152C192.097 151.725 192.513 151.405 193.014 151.192C193.452 150.989 193.99 150.888 194.63 150.888C196.124 150.888 197.116 151.432 197.606 152.52C197.788 152.915 197.878 153.384 197.878 153.928V157.72C197.878 158.253 197.894 158.68 197.926 159H196.198C196.145 158.755 196.118 158.392 196.118 157.912C195.852 158.349 195.51 158.664 195.094 158.856C194.668 159.048 194.23 159.144 193.782 159.144ZM196.118 155.528H194.406C194.033 155.528 193.686 155.624 193.366 155.816C193.046 156.019 192.886 156.291 192.886 156.632C192.886 156.963 193.004 157.229 193.238 157.432C193.473 157.624 193.777 157.72 194.15 157.72C194.758 157.72 195.238 157.544 195.59 157.192C195.942 156.84 196.118 156.371 196.118 155.784V155.528ZM212.602 150.968C212.602 152.003 212.24 152.872 211.514 153.576C210.757 154.312 209.685 154.68 208.298 154.68H206.218V159H204.394V147.336H208.522C210.165 147.336 211.328 147.859 212.01 148.904C212.405 149.512 212.602 150.2 212.602 150.968ZM210.746 151C210.746 150.467 210.565 150.008 210.202 149.624C209.84 149.229 209.226 149.032 208.362 149.032H206.218V153H208.362C209.216 153 209.834 152.781 210.218 152.344C210.57 151.939 210.746 151.491 210.746 151ZM220.083 159H218.355C218.301 158.755 218.275 158.392 218.275 157.912C218.008 158.349 217.667 158.664 217.251 158.856C216.824 159.048 216.387 159.144 215.939 159.144C215.16 159.144 214.52 158.92 214.019 158.472C213.517 158.035 213.267 157.475 213.267 156.792V156.712C213.277 155.699 213.789 154.995 214.803 154.6C215.347 154.387 215.933 154.28 216.562 154.28H217.555C218.045 154.28 218.291 154.056 218.291 153.608C218.291 153.267 218.157 152.979 217.891 152.744C217.603 152.509 217.213 152.392 216.723 152.392C216.253 152.392 215.864 152.515 215.555 152.76C215.245 152.995 215.059 153.315 214.995 153.72L213.379 153.352C213.432 152.979 213.613 152.579 213.923 152.152C214.253 151.725 214.669 151.405 215.171 151.192C215.608 150.989 216.147 150.888 216.786 150.888C218.28 150.888 219.272 151.432 219.763 152.52C219.944 152.915 220.035 153.384 220.035 153.928V157.72C220.035 158.253 220.051 158.68 220.083 159ZM218.275 155.784V155.528H216.562C216.189 155.528 215.843 155.624 215.523 155.816C215.203 156.019 215.043 156.291 215.043 156.632C215.043 156.963 215.16 157.229 215.395 157.432C215.629 157.624 215.933 157.72 216.307 157.72C216.915 157.72 217.395 157.544 217.747 157.192C218.099 156.84 218.275 156.371 218.275 155.784ZM224.901 159.144C223.717 159.133 222.848 158.76 222.293 158.024C221.973 157.608 221.797 157.208 221.765 156.824L223.285 156.424C223.37 156.808 223.552 157.117 223.829 157.352C224.106 157.576 224.458 157.688 224.885 157.688C225.237 157.688 225.509 157.608 225.701 157.448C225.904 157.277 226.005 157.048 226.005 156.76C226.005 156.323 225.69 156.029 225.061 155.88L224.053 155.64C223.37 155.48 222.848 155.203 222.485 154.808C222.122 154.403 221.941 153.923 221.941 153.368C221.941 152.685 222.213 152.099 222.757 151.608C223.301 151.117 223.968 150.872 224.757 150.872C225.877 150.883 226.693 151.235 227.205 151.928C227.472 152.28 227.632 152.637 227.685 153L226.197 153.416C226.122 153.085 225.962 152.819 225.717 152.616C225.482 152.413 225.162 152.312 224.757 152.312C224.458 152.312 224.202 152.397 223.989 152.568C223.776 152.717 223.669 152.931 223.669 153.208C223.669 153.656 223.936 153.933 224.469 154.04L225.557 154.264C226.272 154.424 226.826 154.717 227.221 155.144C227.616 155.592 227.813 156.099 227.813 156.664C227.813 157.336 227.557 157.917 227.045 158.408C226.544 158.899 225.829 159.144 224.901 159.144ZM233.3 159.144C232.148 159.165 231.161 158.771 230.34 157.96C229.529 157.139 229.135 156.152 229.156 155C229.156 154.253 229.337 153.565 229.7 152.936C230.052 152.307 230.553 151.805 231.204 151.432C231.833 151.069 232.537 150.888 233.316 150.888C234.265 150.888 235.071 151.139 235.732 151.64C236.393 152.131 236.815 152.733 236.996 153.448L235.396 153.976C235.3 153.635 235.097 153.309 234.788 153C234.425 152.659 233.935 152.488 233.316 152.488C232.665 152.488 232.111 152.717 231.652 153.176C231.204 153.645 230.98 154.248 230.98 154.984C230.98 155.709 231.199 156.317 231.636 156.808C232.084 157.288 232.649 157.528 233.332 157.528C234.345 157.528 235.044 157.021 235.428 156.008L237.044 156.536C236.863 157.187 236.468 157.768 235.86 158.28C235.199 158.856 234.345 159.144 233.3 159.144ZM245.098 159H243.37C243.317 158.755 243.29 158.392 243.29 157.912C243.023 158.349 242.682 158.664 242.266 158.856C241.839 159.048 241.402 159.144 240.954 159.144C240.175 159.144 239.535 158.92 239.034 158.472C238.533 158.035 238.282 157.475 238.282 156.792V156.712C238.293 155.699 238.805 154.995 239.818 154.6C240.362 154.387 240.949 154.28 241.578 154.28H242.57C243.061 154.28 243.306 154.056 243.306 153.608C243.306 153.267 243.173 152.979 242.906 152.744C242.618 152.509 242.229 152.392 241.738 152.392C241.269 152.392 240.879 152.515 240.57 152.76C240.261 152.995 240.074 153.315 240.01 153.72L238.394 153.352C238.447 152.979 238.629 152.579 238.938 152.152C239.269 151.725 239.685 151.405 240.186 151.192C240.623 150.989 241.162 150.888 241.802 150.888C243.295 150.888 244.287 151.432 244.778 152.52C244.959 152.915 245.05 153.384 245.05 153.928V157.72C245.05 158.253 245.066 158.68 245.098 159ZM243.29 155.784V155.528H241.578C241.205 155.528 240.858 155.624 240.538 155.816C240.218 156.019 240.058 156.291 240.058 156.632C240.058 156.963 240.175 157.229 240.41 157.432C240.645 157.624 240.949 157.72 241.322 157.72C241.93 157.72 242.41 157.544 242.762 157.192C243.114 156.84 243.29 156.371 243.29 155.784ZM249.101 146.872V159H247.325V146.872H249.101ZM253.241 156.264L252.153 159H250.281L255.033 147.336H257.193L261.913 159H260.009L258.937 156.264H253.241ZM253.881 154.632H258.313L256.089 149.096L253.881 154.632ZM263.426 147.336H267.89C269.02 147.336 269.927 147.608 270.61 148.152C271.292 148.707 271.634 149.459 271.634 150.408C271.634 150.803 271.527 151.219 271.314 151.656C271.068 152.2 270.615 152.621 269.954 152.92C270.786 153.187 271.378 153.613 271.73 154.2C272.018 154.712 272.162 155.224 272.162 155.736C272.162 156.707 271.81 157.496 271.106 158.104C270.391 158.701 269.362 159 268.018 159H263.426V147.336ZM265.234 152.28H267.538C268.306 152.28 268.871 152.12 269.234 151.8C269.618 151.48 269.81 151.08 269.81 150.6C269.81 150.099 269.628 149.704 269.266 149.416C268.903 149.128 268.359 148.984 267.634 148.984H265.234V152.28ZM265.25 157.352H268.05C268.775 157.352 269.335 157.197 269.73 156.888C270.135 156.568 270.338 156.136 270.338 155.592C270.338 155.069 270.13 154.653 269.714 154.344C269.308 154.035 268.716 153.88 267.938 153.88H265.25V157.352ZM279.451 159.144C278.566 159.155 277.707 158.963 276.875 158.568C276.054 158.173 275.366 157.624 274.811 156.92C274 155.917 273.595 154.68 273.595 153.208C273.595 152.355 273.755 151.544 274.075 150.776C274.395 150.029 274.827 149.389 275.371 148.856C275.926 148.333 276.56 147.923 277.275 147.624C278.011 147.315 278.763 147.16 279.531 147.16C280.758 147.16 281.83 147.453 282.747 148.04C283.174 148.339 283.526 148.643 283.803 148.952C284.358 149.581 284.731 150.259 284.923 150.984L283.115 151.608C283.019 151.181 282.827 150.76 282.539 150.344C282.336 150.056 282.112 149.821 281.867 149.64C281.27 149.139 280.486 148.888 279.515 148.888C278.47 148.888 277.547 149.272 276.747 150.04C275.926 150.84 275.515 151.875 275.515 153.144C275.515 154.435 275.92 155.475 276.731 156.264C277.52 157.032 278.443 157.416 279.499 157.416C280.384 157.416 281.136 157.176 281.755 156.696C282.043 156.461 282.278 156.227 282.459 155.992C282.79 155.555 283.019 155.107 283.147 154.648L284.955 155.272C284.688 156.232 284.155 157.053 283.355 157.736C282.662 158.323 281.888 158.728 281.035 158.952C280.523 159.08 279.995 159.144 279.451 159.144ZM285.677 157.784C285.677 157.411 285.805 157.096 286.061 156.84C286.338 156.584 286.642 156.456 286.973 156.456C287.314 156.456 287.624 156.584 287.901 156.84C288.146 157.085 288.269 157.4 288.269 157.784C288.269 158.147 288.146 158.451 287.901 158.696C287.645 158.952 287.336 159.08 286.973 159.08C286.632 159.08 286.328 158.947 286.061 158.68C285.805 158.445 285.677 158.147 285.677 157.784ZM300.484 159H298.436L292.452 150.072V159H290.644V147.336H292.756L298.676 156.216V147.336H300.484V159ZM303.441 147.336H310.913V149H305.265V152.232H310.401V153.896H305.265V157.336H310.961V159H303.441V147.336ZM315.828 159V149.032H312.116V147.336H321.364V149.032H317.652V159H315.828Z" fill="#333333"/>
<defs>
<linearGradient id="paint0_linear_31_36" x1="500" y1="-1.49012e-05" x2="0" y2="250" gradientUnits="userSpaceOnUse">
<stop stop-color="#FFE9B1"/>
<stop offset="1" stop-color="#E1BD61"/>
</linearGradient>
</defs>
</svg>
